X:1
T:Zwölf Gesänge
T:Für die Laute componirt
T:5. Für die Laute componirt
T:Louise Reichardt
T:Clemens Brentano
T:Zwölf Gesänge
T:OpenScore (CC0)
C:Louise Reichardt
Z:Clemens Brentano
Z:OpenScore (CC0)
%%score 1 { 2 | 3 }
L:1/8
Q:1/4=100
M:6/8
K:Bb
V:1 treble nm="Voice"
V:2 treble nm="Piano"
V:3 bass 
V:1
"^Wehmüthig und langsam" F |: F2 B BA B | (=B2 c) c2 F | B2 F F2 E | D3 z2 F | F2 B BA B | %6
w: Ich|wollt' ein Sträus- * lein|bin- * den, da|kam die dunk- le|Nacht, kein|Blüm- lein war * zu|
 =B3 c2 F | F2 d (c3/2 e/d/) c/ |1 B3 z2 F!D.S.! :|2 z2!fine! |] %10
w: fin- den sonst|hätt' ich dirs * * geb-|racht. Da||
V:2
 z |: DFB DFB | EFA EFA | DFB EFA | DFB DFB | DFB DFB | EFA EFA | DFB EFA |1 DFB DFB :|2 z2 |] %10
V:3
 z |: [B,,B,]3 [B,,B,]3 | F,3 F,3 | [B,,B,]3 [F,C]3 | [B,,B,]3 [B,,B,]3 | [B,,B,]3 [B,,B,]3 | %6
 F,3 F,3 | [B,,B,]3 [F,,F,]3 |1 [B,,B,]3 [B,,B,]3 :|2 [B,,,B,,]2 |] %10

